X:133
%%etbk:tnset id:47,pos:2,rep:3x,ant:
%%etbk:wsite http://www.thesession.org/tunes/display/2996
%%etbk:pldat 2016-04-11T18:43,2016-03-20T11:33,2015-07-29T18:09,2015-05-17T16:32,2015-02-18T18:03,2015-02-17T18:05,2015-02-12T19:50,2014-12-11T18:51,2014-11-19T16:48,2014-11-15T15:57,2014-09-22T18:15,2014-06-03T17:33,2014-03-21T15:58,2014-03-09T16:51,2014-03-01T17:41,2014-02-27T18:20,2014-02-26T18:00,2014-02-06T18:21,2013-11-19T16:34,2013-10-21T18:57,2013-09-17T09:56,2013-09-12T18:50,2013-08-26T18:50,2013-05-22T17:28,2013-05-21T17:32,2013-05-10T16:30,2013-05-05T14:51
T: Trip To Cullenstown, The
Z: Piano Box Version by Martin Fleischmann
H: Created 2013-02-19 /  Last Modified 2013-02-19
M: 4/4
L: 1/8
R: reel
K: Gmaj
|: "G"!4![d3G]e !4!d!3!B!1!GA | !3!B!2!B!3!BG !2!A!1!G!2!E!1!G | !4!d!1!G!4!de !4!d!3!B!1!GA | "D"!3!BA{c}AG !2!AAGA |
"G"!3!BAB!4!d !5!ee!4!d!3!B | !4!ded!3!B !2!A!1!G!2!E!1!G | !3!B3G {c}!2!A!1!G!2!E!4!G | "D"!1!D!4!GG!3!F "G"!4!!1!G4 :|
|: "G"!3!B2 !4![d2G] "C"!3![c3G]!5!e | "G"!4![d3G]e !4!d!3!B!1!G2 | !3!B!4!d !4!d2 !2!e!1!d d2 | !4!ge!1!d!3!B "D"!2!AAGA |
"G"!3!BAB!4!d !5!ee!4!d!3!B | !4!ded!3!B !2!A!1!G!2!E!1!G | !3!B3G {c}!2!A!1!G!2!E!4!G | "D"!1!D!4!GG!3!F "G"!4!!1!G4 :|


